X: 15
T: Fitzmaurice's Polka
C:John Kimmel
S:Buttons & Bows
Z:Nigel Gatherer <gatherer@argonet.co.uk>
S:Nigel Gatherer <gatherer@argonet.co.uk> irtrad-l 2001-9-22
M:2/4
L:1/16
R:Polka
K:G
D|:G2G2 FGAF|Gg efge|dedB GABG|ABAF DE (3FED|
G2GG FGAF|Gg efge|dedB GABG|1 AFDF GDDD:|2 AFDF G3G|]
K:D
A2FG ABcd|D2c2 c2 z2|GGGG BBBB|F2FF F3A|
A2FG ABcd|B2GA ABcd|B2GA BGBd|gfge cABc|dBAF D3A:|
f4 fedB|A2A2 A3A|B2B2 BcdB|A2d2 f2d2|c6 Bc|d6 c2|B4- BcdB|
e2c2 B2A2|f2f2 fedB|A2A2 A3A|B2B2 Bcde|f4 f2f2|
g2g2 g2fe|a2a2 a2fd|B2 z2 c2 z2|1 d2A2 B2A2:|2 d2DD E2D2|]
K:G
G2G2 FGAF|Gg efge|dedB GABG|ABAF DE (3FED|
G2GG FGAF|Gg efge|dedB GABG|AFDF G3 z|]
%%sep 1 1 500
